X: 9
T:Dixie Hoedown
% Nottingham Music Database
S:via PR
M:4/4
L:1/4
K:G
P:A
d/2c/2|"G"BB/2c/2 B/2A/2G/2F/2|"C"E/2C/2E/2G/2 cd/2c/2|\
"G"B/2A/2B/2c/2 B/2A/2G/2B/2|"D7"A/2B/2A/2F/2 Dd/2c/2|
"G"BB/2c/2 B/2A/2G/2F/2|"C"E/2C/2E/2G/2 "Am"c/2c/2d/2c/2|\
"G"B/2A/2G/2B/2 "D7"A/2G/2F/2A/2|"G"GG/2G/2 G:|
P:B
d|"G"+B3g/2++Bg+|"Bm"+d3f/2++df/2+|"C"e3/2d/2 cA|"G"Bd3|"D"DD/2D/2 FF/2F/2|\
"D"A/2A/2A "D7"d2|
"G"GG/2G/2 BB/2B/2|"G"d/2d/2d "D7"gd|"G"+d3g/2++dg+|"Bm"+d3f/2++df/2+|\
"C"e3/2d/2 cA|"G"B"Gdim"d3|
"D"DD/2D/2 FF/2F/2|"D"A/2A/2A "D7"dd/2c/2|"G"B/2A/2G/2B/2 "D7"A/2G/2F/2A/2|\
"G"GG/2G/2 G/2||<end>
<start>
